!!!OTL: Wiegenlied (3-100), S. 271
!!!id: P1074
**kern
*clefG2
*k[f#]
*G:
*M2/4
{4g
8a
8f#
=2
4g}
8r
=3
{8g
=4
8cc
8cc
8dd
8b
=5
4a}
8r
=6
{16b
16a
=7
8g
8g
8a
8a
=8
8dd
8dd
8b}
=9
{8b
=10
8g
8g
8a
8a
=11
8dd
8dd
8b}
=12
{16b
16a
=13
8g
8g
8a
8a
=14
8dd
8dd
8b}
=15
{8a
=16
8g
8g
16a
16a
8a
=17
8dd
8dd
4b}
=18
{4g
8a
8a
=19
4.dd}
=20
{8cc
=21
16b
16b
8g
8a
8a
=22
4.g}
8r
==
*-
!!!minrhy: 16
!!!meters: 2/4 ]  ZZ[8
!!!cut: Wiegenlied (3-100), S. 271
!!!reg: Lothringen
!!!trd: PINCK, Louis: Verklingende Weisen, Bd3, Metz 1933
!!!rhy1: X__X_X_  X__0   (x2)
!!!rhy2: X_  X_X_X_X_  X__0
!!!key: P1074  16  G 2/4 ]  ZZ[8
!!!mod: SECHSTONSKALA DUR ?]  AMBITUS[6b
!!!kad: 12333351
!!!akz: 11_42_15_15_15_15_15_31_
!!!fot: 'a__b__aw_aw_aw_aw_aw_c__
!!!for: 'a__b__bw_bw_bw_c__av_d__
!!!fok: '-__^a_S__S__S__^a_/__\__
!! PHRAS[VORWIEGEND AUFTAKTIG]
!!!fkt: Schlaf-, Wiegenlied
!! LOTH VKL
!! PR[19] 2K[4] 2G[24] 3K[0] 3G[1] 4A[7] 4Ü[0] 5A[0] 6K[0] 6G[0]
!! 7K[0] 7G[0] 8A[0] MEHR[0] SI[36] ABS[101] SR[28] SP[8]
!! ST[32] 2k[10] 2g[31] 3k[1] 3g[4] 4d[0] 4ü[0] 5d[0] 6k[0] 6g[0]
!! 7k[0] 7g[0] 8d[0] mehr[0] si[46] dm[-10] sr[41] sp[5]
!! 1F[9] 2F[65] 3F[16] 4F[2] LF[0] 2P[8] 3P[0] 4P[0] TRI[0] DF[5] AB[106]
!! TF[0] U3K[0] U3[0] U4[0] U4Ü[0] U5[10] U6K[0] U6[16] U7K[0] U7[12]
!! N1[31] N2K[0] N2[22] N3K[0] N3[9] N4[1] N4Ü[0] N5[0] N6K[0] N6[0]
!!!n7k: 0] N7[0] O1[0] O2K[0] O2[0] O3K[0] O3[0] HÖ[0
